X:017
U: ~ = !turn!
%%topmargin 3cm
T:Boys of the 25
B:Traditional Irish Fiddle Tunes. Randy Miller and Jack Perron.
Z:Transcribed by Ralph Palmer
R:Reel
M:C|
L:1/8
K:D
A | =cAAF G2 AB | =cABG Ad d2 | =cAAF G2 ag | fded Ad d ::
e | f3 g a3 g | fefg af d2 | f3 g a3 g | fded Ad d2 |
f3 g a3 g | fefg af d2 | ~g3 f g2 ag | fded Ad d2 |]
